packages/kaspersky-hexa-ui-icons/src/iconsSVGs/16/ShieldCracked.svg

<svg width="16" height="16" viewBox="0 0 16 16" fill="none" xmlns="http://www.w3.org/2000/svg">
<path fill-rule="evenodd" clip-rule="evenodd" d="M8.07736 14.7565C8.18768 15.1225 8.18791 15.1224 8.18816 15.1223L8.1903 15.1217L8.19413 15.1205L8.20508 15.1171C8.21383 15.1143 8.22545 15.1105 8.23981 15.1058C8.26852 15.0962 8.30819 15.0825 8.3577 15.0643C8.45668 15.0279 8.59526 14.9733 8.76437 14.8973C9.10222 14.7454 9.56439 14.5069 10.0772 14.1554C11.1036 13.4518 12.34 12.2901 13.1778 10.4629C13.6224 9.49323 13.7209 8.44228 13.7209 7.4774V4.13223C13.7209 3.88957 13.5857 3.66711 13.3703 3.55532L8.76024 1.16234C8.28366 0.91496 7.7165 0.914961 7.23991 1.16234L2.62984 3.55532C2.41446 3.66711 2.2793 3.88957 2.2793 4.13223V7.5192C2.2793 8.45628 2.3725 9.47266 2.78607 10.419C3.61939 12.3259 4.86676 13.5015 5.91063 14.1992C6.43141 14.5472 6.90172 14.7766 7.24617 14.9202C7.41858 14.9921 7.56008 15.0428 7.66142 15.0762C7.71211 15.0929 7.75283 15.1054 7.78242 15.1141C7.79722 15.1184 7.80925 15.1218 7.81835 15.1243L7.82982 15.1274L7.83388 15.1285L7.83548 15.1289C7.83572 15.129 7.83665 15.1292 7.90654 14.8603C7.90652 14.8603 7.90656 14.8603 7.90654 14.8603L7.8368 15.1293C7.95214 15.1592 8.07406 15.1567 8.18816 15.1223L8.07736 14.7565C8.07736 14.7565 8.07735 14.7565 8.07736 14.7565ZM7.31527 2.58793L3.5793 4.52718V7.5192C3.5793 8.38521 3.66883 9.19261 3.97729 9.89845C4.69311 11.5365 5.75495 12.5315 6.63299 13.1183C6.82471 13.2465 7.00765 13.3551 7.17616 13.4465L8.27546 8.59448H6.69639C6.49727 8.59448 6.30913 8.50322 6.18588 8.34683C6.06263 8.19044 6.01785 7.98619 6.06438 7.79259L7.31527 2.58793ZM8.47534 13.5956L9.72313 8.08811C9.7668 7.89537 9.72041 7.69322 9.59707 7.53881C9.47373 7.38439 9.28683 7.29448 9.0892 7.29448H7.52112L8.65591 2.57289L12.4209 4.52718V7.4774C12.4209 8.37056 12.3259 9.20182 11.9961 9.92109C11.2772 11.4891 10.2201 12.4814 9.34225 13.0831C9.01917 13.3046 8.7213 13.4724 8.47534 13.5956Z" fill="black"/>
</svg>

<svg xmlns="http://www.w3.org/2000/svg" width="16" height="16" fill="none" viewBox="0 0 16 16"><path fill="#000" fill-rule="evenodd" d="M8.0774 14.7565c.1103.366.1105.3659.1108.3658l.0021-.0006.0038-.0012.011-.0034.0347-.0113a4 4 0 0 0 .1179-.0415 6.3 6.3 0 0 0 .4067-.167c.3378-.1519.8-.3904 1.3128-.7419 1.0264-.7036 2.2628-1.8653 3.1006-3.6925.4446-.9697.5431-2.0206.5431-2.9855V4.1322a.65.65 0 0 0-.3506-.5769l-4.61-2.393a1.65 1.65 0 0 0-1.5204 0l-4.61 2.393a.65.65 0 0 0-.3506.577v3.3869c0 .937.0932 1.9535.5068 2.8998.8333 1.9069 2.0807 3.0825 3.1245 3.7802.5208.348.9911.5774 1.3356.721.1724.0719.3139.1226.4152.156a4 4 0 0 0 .157.0481l.0114.0031.004.0011.0017.0004c.0002.0001.0011.0003.071-.2686l-.0697.269a.65.65 0 0 0 .3514-.007zM7.3153 2.5879l-3.736 1.9393v2.992c0 .866.0895 1.6734.398 2.3793.7158 1.638 1.7777 2.633 2.6557 3.2198a6.9 6.9 0 0 0 .5432.3282l1.0993-4.852H6.6964a.65.65 0 0 1-.632-.802zm1.16 11.0077 1.2478-5.5075a.65.65 0 0 0-.6339-.7936h-1.568l1.1347-4.7216 3.765 1.9543v2.9502c0 .8932-.095 1.7244-.4248 2.4437-.7189 1.568-1.776 2.5603-2.6539 3.162a7.4 7.4 0 0 1-.8669.5125"/></svg>
